icons/solid/arrow-right-circle.svg

<svg width="24" height="24" viewBox="0 0 24 24" fill="none" xmlns="http://www.w3.org/2000/svg">
<path fill-rule="evenodd" clip-rule="evenodd" d="M12 2.25C6.61522 2.25 2.25 6.61522 2.25 12C2.25 17.3848 6.61522 21.75 12 21.75C17.3848 21.75 21.75 17.3848 21.75 12C21.75 6.61522 17.3848 2.25 12 2.25ZM16.2803 12.5303C16.421 12.3897 16.5 12.1989 16.5 12C16.5 11.8011 16.421 11.6103 16.2803 11.4697L13.2803 8.46967C12.9874 8.17678 12.5126 8.17678 12.2197 8.46967C11.9268 8.76256 11.9268 9.23744 12.2197 9.53033L13.9393 11.25L8.25 11.25C7.83579 11.25 7.5 11.5858 7.5 12C7.5 12.4142 7.83579 12.75 8.25 12.75L13.9393 12.75L12.2197 14.4697C11.9268 14.7626 11.9268 15.2374 12.2197 15.5303C12.5126 15.8232 12.9874 15.8232 13.2803 15.5303L16.2803 12.5303Z" fill="#0F172A"/>
</svg>

<svg xmlns="http://www.w3.org/2000/svg" viewBox="0 0 24 24" fill="currentColor" aria-hidden="true">
  <path fill-rule="evenodd" d="M12 2.25c-5.385 0-9.75 4.365-9.75 9.75s4.365 9.75 9.75 9.75 9.75-4.365 9.75-9.75S17.385 2.25 12 2.25zm4.28 10.28a.75.75 0 000-1.06l-3-3a.75.75 0 10-1.06 1.06l1.72 1.72H8.25a.75.75 0 000 1.5h5.69l-1.72 1.72a.75.75 0 101.06 1.06l3-3z" clip-rule="evenodd"/>
</svg>
